svg/fluentui-system-icons/ic_fluent_document_folder_16_regular.svg

<svg width="16" height="16" viewBox="0 0 16 16" fill="none" xmlns="http://www.w3.org/2000/svg">
<path d="M13 10.0854C13.5826 10.2913 14 10.8469 14 11.5V12C14 13.1046 13.1046 14 12 14H4C2.89543 14 2 13.1046 2 12V6.5C2 5.84689 2.4174 5.29127 3 5.08535V3.5C3 2.67157 3.67157 2 4.5 2H9.5C10.3284 2 11 2.67157 11 3.5V10H12L11.9997 4.08525C12.5825 4.29109 13 4.84678 13 5.5V10.0854ZM10 9.29289V3.5C10 3.22386 9.77614 3 9.5 3H4.5C4.22386 3 4 3.22386 4 3.5V5H5.08579C5.48361 5 5.86514 5.15804 6.14645 5.43934L10 9.29289ZM3 6.5V12C3 12.5523 3.44772 13 4 13H12C12.5523 13 13 12.5523 13 12V11.5C13 11.2239 12.7761 11 12.5 11H10.9142C10.5164 11 10.1349 10.842 9.85355 10.5607L5.43934 6.14645C5.34557 6.05268 5.21839 6 5.08579 6H3.5C3.22386 6 3 6.22386 3 6.5Z" fill="#212121"/>
</svg>

<svg xmlns="http://www.w3.org/2000/svg" width="16" height="16"><path d="M13 10.085a1.5 1.5 0 0 1 1 1.415v.5a2 2 0 0 1-2 2H4a2 2 0 0 1-2-2V6.5a1.5 1.5 0 0 1 1-1.415V3.5A1.5 1.5 0 0 1 4.5 2h5A1.5 1.5 0 0 1 11 3.5V10h1V4.085A1.5 1.5 0 0 1 13 5.5v4.585Zm-3-.792V3.5a.5.5 0 0 0-.5-.5h-5a.5.5 0 0 0-.5.5V5h1.086a1.5 1.5 0 0 1 1.06.44L10 9.292ZM3 6.5V12a1 1 0 0 0 1 1h8a1 1 0 0 0 1-1v-.5a.5.5 0 0 0-.5-.5h-1.586a1.5 1.5 0 0 1-1.06-.44L5.439 6.147A.5.5 0 0 0 5.086 6H3.5a.5.5 0 0 0-.5.5Z"/></svg>
